public/assets/home_cta/php.svg

<svg fill="none" height="35" viewBox="0 0 72 35" width="72" xmlns="http://www.w3.org/2000/svg" xmlns:xlink="http://www.w3.org/1999/xlink"><mask id="a" height="28" maskUnits="userSpaceOnUse" width="27" x="0" y="7"><path d="m0 7.20312h26.0404v27.51668h-26.0404z" fill="#fff"/></mask><mask id="b" height="28" maskUnits="userSpaceOnUse" width="27" x="45" y="7"><path d="m45.9452 7.20312h26.0548v27.54958h-26.0548z" fill="#fff"/></mask><g mask="url(#a)"><path clip-rule="evenodd" d="m8.21202 23.1564c2.09108-.0945 4.11428-.0884 6.11478-.3022 2.0972-.2262 3.6866-1.3241 4.5646-3.3247.5251-1.1886.8335-2.4614.9108-3.7585.1398-2.3748-.588-3.4399-2.6297-3.9539-.2427-.0617-.4935-.1234-.7423-.1295-1.8998-.0514-3.7996-.0926-5.6995-.1131-.111 0-.294.1727-.3269.2961-.1151.4317-.1748.8758-.2611 1.3159l-1.93068 9.972m-2.88675-15.95733h.67029c3.72975.00617 7.45534-.00411 11.18304.01234 1.4187.00617 2.8128.19327 4.1492.69496 2.8786 1.07944 4.5358 3.17663 4.69 6.23813.2467 4.8668-1.6038 8.7796-5.7016 11.5059-1.4729.9702-3.1809 1.5236-4.9428 1.6017-2.4879.1337-4.986.1378-7.48007.181-.35159.0061-.53458.0411-.61066.4729-.37009 2.0951-.7957 4.18-1.20281 6.271-.0329.1727-.07402.3455-.1172.5428h-5.96266l5.32322-27.51662" fill="#fff" fill-rule="evenodd"/></g><g mask="url(#b)"><path clip-rule="evenodd" d="m54.1819 23.0781c2.1445-.0864 4.2684.1665 6.3739-.2591 1.4413-.294 2.7263-.8636 3.592-2.1137 1.248-1.8052 1.7168-3.8593 1.5893-6.0202-.0946-1.5976-.8656-2.418-2.4138-2.8086-.6025-.157-1.2202-.2487-1.8423-.2735-1.5585-.0473-3.1191-.0247-4.6776-.0493-.3249-.0062-.4277.111-.4832.4174-.3331 1.7846-.6888 3.5652-1.0342 5.3499zm-.8492 4.3609c-.4359 2.2658-.8533 4.4741-1.2912 6.6782-.148.7402.0082.6271-.734.6292-1.6058.0082-3.2096.0041-4.8154.0041h-.5469l5.3253-27.5249c.1357-.00617.2673-.02056.3968-.02056 3.8181 0 7.6363-.00823 11.4524.00617 1.5544.00616 3.0841.22 4.5234.83682 2.5557 1.09384 4.0361 3.03277 4.2972 5.82077.4627 4.9079-1.8422 9.7151-6.3574 12.1762-1.612.88-3.374 1.2295-5.1793 1.3015-2.165.0843-4.3363.0658-6.5034.0925z" fill="#fff" fill-rule="evenodd"/></g><path clip-rule="evenodd" d="m25.0226 27.7987.9499-4.9264 2.8559-14.6825c.5099-2.62357 1.0178-5.2492 1.54-7.870717.0247-.119253.1809-.304301.2776-.304301 1.908-.01850486 3.8181-.01439268 5.7755-.01439268l-1.4331 7.39576068h.5058c1.7909 0 3.5817-.01851 5.3726.00616 1.6737.02262 3.335.18094 4.9058.82244 2.1486.87384 3.0842 2.56395 2.8436 5.03945-.1809 1.8485-.5901 3.6763-.9335 5.5042-.5469 2.8929-1.1246 5.7797-1.7004 8.6664-.0267.1337-.1829.3475-.2796.3495-1.9389.0206-3.8778.0144-5.8701.0144l.5921-3.08c.6313-3.3041 1.2666-6.6083 1.8916-9.9124.0473-.2488.0514-.5099.0473-.7649-.0144-1.1308-.44-1.7065-1.5441-1.9533-.602-.1251-1.215-.1898-1.8299-.1932-1.4907-.0268-2.9813 0-4.47-.0144-.3207-.0041-.4256.0884-.4872.4112-.9705 5.0436-1.9595 10.0851-2.9403 15.1267-.037.1953-.0308.3844-.3207.3844-1.8937-.0082-3.7894-.0041-5.7509-.0041" fill="#fff" fill-rule="evenodd"/></svg>

<svg width="72" height="35" viewBox="0 0 72 35" fill="none" xmlns="http://www.w3.org/2000/svg">
<mask id="mask0_215_724" style="mask-type:alpha" maskUnits="userSpaceOnUse" x="0" y="7" width="27" height="28">
<path d="M0 7.20312H26.0404V34.7198H0V7.20312Z" fill="white"/>
</mask>
<g mask="url(#mask0_215_724)">
<path fill-rule="evenodd" clip-rule="evenodd" d="M8.21202 23.1564C10.3031 23.0619 12.3263 23.068 14.3268 22.8542C16.424 22.628 18.0134 21.5301 18.8914 19.5295C19.4165 18.3409 19.7249 17.0681 19.8022 15.771C19.942 13.3962 19.2142 12.3311 17.1725 11.8171C16.9298 11.7554 16.679 11.6937 16.4302 11.6876C14.5304 11.6362 12.6306 11.595 10.7307 11.5745C10.6197 11.5745 10.4367 11.7472 10.4038 11.8706C10.2887 12.3023 10.229 12.7464 10.1427 13.1865L8.21202 23.1585M5.32527 7.20117H5.99556C9.72531 7.20734 13.4509 7.19706 17.1786 7.21351C18.5973 7.21968 19.9914 7.40678 21.3278 7.90847C24.2064 8.98791 25.8636 11.0851 26.0178 14.1466C26.2645 19.0134 24.414 22.9262 20.3162 25.6525C18.8433 26.6227 17.1353 27.1761 15.3734 27.2542C12.8855 27.3879 10.3874 27.392 7.89333 27.4352C7.54174 27.4413 7.35875 27.4763 7.28267 27.9081C6.91258 30.0032 6.48697 32.0881 6.07986 34.1791C6.04696 34.3518 6.00584 34.5246 5.96266 34.7219H0L5.32322 7.20528" fill="white"/>
</g>
<mask id="mask1_215_724" style="mask-type:alpha" maskUnits="userSpaceOnUse" x="45" y="7" width="27" height="28">
<path d="M45.9452 7.20312H72V34.7527H45.9452V7.20312Z" fill="white"/>
</mask>
<g mask="url(#mask1_215_724)">
<path fill-rule="evenodd" clip-rule="evenodd" d="M54.1819 23.0781C56.3264 22.9917 58.4503 23.2446 60.5558 22.819C61.9971 22.525 63.2821 21.9554 64.1478 20.7053C65.3958 18.9001 65.8646 16.846 65.7371 14.6851C65.6425 13.0875 64.8715 12.2671 63.3233 11.8765C62.7208 11.7195 62.1031 11.6278 61.481 11.603C59.9225 11.5557 58.3619 11.5783 56.8034 11.5537C56.4785 11.5475 56.3757 11.6647 56.3202 11.9711C55.9871 13.7557 55.6314 15.5363 55.286 17.321L54.1819 23.0781ZM53.3327 27.439C52.8968 29.7048 52.4794 31.9131 52.0415 34.1172C51.8935 34.8574 52.0497 34.7443 51.3075 34.7464C49.7017 34.7546 48.0979 34.7505 46.4921 34.7505H45.9452L51.2705 7.2256C51.4062 7.21943 51.5378 7.20504 51.6673 7.20504C55.4854 7.20504 59.3036 7.19681 63.1197 7.21121C64.6741 7.21737 66.2038 7.43121 67.6431 8.04803C70.1988 9.14187 71.6792 11.0808 71.9403 13.8688C72.403 18.7767 70.0981 23.5839 65.5829 26.045C63.9709 26.925 62.2089 27.2745 60.4036 27.3465C58.2386 27.4308 56.0673 27.4123 53.9002 27.439H53.3327Z" fill="white"/>
</g>
<path fill-rule="evenodd" clip-rule="evenodd" d="M25.0226 27.7987L25.9725 22.8723L28.8284 8.1898C29.3383 5.56623 29.8462 2.9406 30.3684 0.319083C30.3931 0.19983 30.5493 0.014782 30.646 0.014782C32.554 -0.00372286 34.4641 0.000389319 36.4215 0.000389319L34.9884 7.39615H35.4942C37.2851 7.39615 39.0759 7.37764 40.8668 7.40231C42.5405 7.42493 44.2018 7.58325 45.7726 8.22475C47.9212 9.09859 48.8568 10.7887 48.6162 13.2642C48.4353 15.1127 48.0261 16.9405 47.6827 18.7684C47.1358 21.6613 46.5581 24.5481 45.9823 27.4348C45.9556 27.5685 45.7994 27.7823 45.7027 27.7843C43.7638 27.8049 41.8249 27.7987 39.8326 27.7987L40.4247 24.7187C41.056 21.4146 41.6913 18.1104 42.3163 14.8063C42.3636 14.5575 42.3677 14.2964 42.3636 14.0414C42.3492 12.9106 41.9236 12.3349 40.8195 12.0881C40.2175 11.963 39.6045 11.8983 38.9896 11.8949C37.4989 11.8681 36.0083 11.8949 34.5196 11.8805C34.1989 11.8764 34.094 11.9689 34.0324 12.2917C33.0619 17.3353 32.0729 22.3768 31.0921 27.4184C31.0551 27.6137 31.0613 27.8028 30.7714 27.8028C28.8777 27.7946 26.982 27.7987 25.0205 27.7987" fill="white"/>
</svg>
